!!!!SEGMENT: pl-wumfc--r252--001-002_paderewski-ignacy-jan--trois-morceaux-op-3-melodie.krn
!!!cenid: 18xx:3142
!!!COM: Paderewski, Ignacy Jan
!!!COM-rismID: pe30029943
!!!CDT: 1860/11/18-1941/06/29
!!!CNT: Polish
!!!GTL: Trois morceaux op. 3
!!!OTL: Melodie
!!!OMV: 002
!!!PDT:
!!!AGN:
!!!YEC: Copyright 2022 Narodowy Instytut Fryderyka Chopina (https://polishscores.org)
!!!YEM: License CC-BY-4.0 (https://creativecommons.org/licenses/by/4.0)
!!!SMS-siglum: PL-Wumfc
!!!SMS-shelfmark: R252
!!!SMS-shelfwork: 001-002 G
!!!SMS-variant:
!!!SMS-altvar:
!!!NIFC-rismSourceID: 1001155973
!!!NIFC-rismChildID: 1001155976
!!!NIFC-islandoraID: pl-wumfc:213
!!!URL-pdf-islandora: https://repozytorium.nifc.pl/islandora/object/pl-wumfc%3A213/datastream/PDF/view
!!!URL-scan: https://polish.musicsources.pl/pl/lokalizacje/galeria/rekopisy/4672 @EN{Scan on Polish Music Sources Website} @PL{Skany w portalu Dziedzictwo Muzyki Polskiej w otwartym dostępie}
!!!IIIF:
!!!ONB-nifc:
!!!AIN: 2 piano
!!!key: C
!!!OMD: Andantino
**kern	**fing	**kern	**fing	**dynam
*group1	*	*group1	*	*
*part2	*	*part1	*	*
*staff2	*	*staff1	*	*
*I"[Piano]	*	*I"[Piano]	*	*
*mI"Pianoforte	*	*mI"Pianoforte	*	*
*Ipiano	*	*Ipiano	*	*
*ICklav	*	*ICklav	*	*
*IGsolo	*	*IGsolo	*	*
*clefF4	*	*clefG2	*	*
*k[]	*	*k[]	*	*
*C:	*	*C:	*	*
*kcancel	*	*kcancel	*	*
*M2/4	*	*M2/4	*	*
*met(c)	*	*met(c)	*	*
=1	=1	=1	=1	=1
*^	*	*	*	*
!	!	!	!LO:TX:t=P:problem=4\middle	!	!
8re	2F\	.	(4aa\	.	p
4a/ 4c/	.	.	.	.	.
.	.	.	4ee\	.	.
8a/ 8c#X/	.	.	.	.	.
=84	=84	=84	=84	=84	=84
8re	2F\	.	4gg\	.	.
4a/ 4d/	.	.	.	.	.
!	!	!	!LO:TX:t=P:problem=8\middle	!	!
.	.	.	8ff\L	.	.
!	!	!	!LO:TX:t=P:problem=8\middle	!	!
8f/ 8d/ 8A/	.	.	8a\J)	.	.
=85	=85	=85	=85	=85	=85
8re	2D\	.	8r	.	.
8f/ 8c/ 8A/	.	.	(>8a/L	.	<
8re	.	.	8b/	.	.
8f/ 8c/ 8A/	.	.	8cc/J	.	[[
=86	=86	=86	=86	=86	=86
!	!	!	!LO:TX:t=P:4\right:problem	!	!
8rd	2G\	.	4ee\	.	>
4f/ 4A/	.	.	.	.	.
!	!	!	!LO:TX:t=P:problem=4\middle	!	!
.	.	.	4dd\)	.	]]
8f/ 8B/	.	.	.	.	.
=87	=87	=87	=87	=87	=87
!	!	!	!LO:TX:t=P:4\right:problem	!	!
8re	2E\	.	(>4cc\	.	<
4c/ 4G/	.	.	.	.	.
.	.	.	4g/)	.	[[
8g/ 8c/	.	.	.	.	.
!!LO:LB:g=original
=88	=88	=88	=88	=88	=88
8rd	4E-X\	.	4g#X/	.	<
8f#X 8c/	.	.	.	.	.
8rd	4D\	.	4a/	.	[[
8fn 8c/	.	.	.	.	.
=89	=89	=89	=89	=89	=89
*	*	*	*^	*	*
8r	2GG\	.	4a/	8r	.	.
8A/L	.	.	.	(>8f\L	.	.
!	!	!	!LO:MO:mod=!LO&colon;TX&colon;a&colon;i&colon;t=rall.	!	!	!
!	!	!	!LO:TX:b:i:t=rall	!	!	!
8G/	.	.	4b/	8e\	.	.
8F/J	.	.	.	8d\J	.	>
*	*	*	*v	*v	*	*
=90	=90	=90	=90	=90	=90
8d/L	2E 2GG#X;<\	.	2e;>/)	.	]
8A#X/J	.	.	.	.	.
4B;>/	.	.	.	.	.
.	.	.	8qqe/	.	.
=91	=91	=91	=91	=91	=91
!	!	!	!LO:TX:a:B:t=Tempo 1.:mod=Tempo I	!	!
.	.	.	8qe/	.	.
8rA	2AA\	.	(>4aa\	.	p
4c 4A 4E/	.	.	.	.	.
.	.	.	4ee\	.	.
8g 8c 8A/	.	.	.	.	.
=92	=92	=92	=92	=92	=92
8r	2D\	.	4gg\	.	.
8b-X 8e 8c#X/	.	.	.	.	.
8rA	.	.	8ff\L	.	<
8f 8d/	.	.	8a\J)	.	[[
!!LO:LB:g=original
=93	=93	=93	=93	=93	=93
8r	2D\	.	(>8ff\L	.	<
4f 4d 4A/	.	.	8ee\	.	.
.	.	.	8dd~>\	.	.
8f 8d 8A/	.	.	8cc~>\J	.	[[
=94	=94	=94	=94	=94	=94
8r	2D#X\	.	4cc~>\)	.	>
8f 8c 8A/	.	.	.	.	.
8rA	.	.	(>8g#X/L	.	.
8f 8c 8A/	.	.	8a/J	.	]
=95	=95	=95	=95	=95	=95
!LO:TX:b:i:t=una corda	!	!	!	!	!
8rB	2E\	.	4cc#X\	.	pp
8e 8c#X 8A/	.	.	.	.	.
8rB	.	.	4e/	.	.
8c# 8A/	.	.	.	.	.
=96	=96	=96	=96	=96	=96
8rB	2BB\	.	4f#X/	.	.
4d 4A/	.	.	.	.	.
.	.	.	8ee\L	.	.
8f#X 8d 8A/	.	.	8dd\J)	.	.
=97	=97	=97	=97	=97	=97
8rA	2EE\	.	(>4.cc#X\	.	.
8f##X 8d 8A#X/	.	.	.	.	.
4g 4d 4B/	.	.	.	.	.
.	.	.	8b\	.	.
!!LO:LB:g=original
=98	=98	=98	=98	=98	=98
!	!LO:SIC:o=2AA\	!	!	!	!
8rA	2AA\;	.	4a;>/)	.	.
4a 4e 4c;</	.	.	.	.	.
.	.	.	8r	.	.
8ryy	.	.	(>8a/	.	.
=99	=99	=99	=99	=99	=99
8r	2A\	.	4cc\	.	p
4cn/	.	.	.	.	.
.	.	.	4c/	.	<
8c/	.	.	.	.	.
=100	=100	=100	=100	=100	=100
*	*	*	*^	*	*
8rd	2G\	.	4d/	2d\	.	.
4c/	.	.	.	.	.	.
.	.	.	4b-X/	.	.	.
8c/	.	.	.	.	.	[[
=101	=101	=101	=101	=101	=101	=101
8rf	2B-X\	.	4b-X/	2e\	.	.
!	!	!	!	!	!	!LO:MO:mod=!LO&colon;HP&colon;t=poco a poco cresc.
!	!	!	!	!	!	!LO:HP:t=poco a poco cresc&colon;
4c/	.	.	.	.	.	<
.	.	.	8a/L	.	.	.
8c/	.	.	8g/J	.	.	.
*	*	*	*v	*v	*	*
=102	=102	=102	=102	=102	=102
8r	2A\	.	4f/	.	.
4c/	.	.	.	.	.
.	.	.	4g/)	.	.
8c/	.	.	.	.	.
=103	=103	=103	=103	=103	=103
8r	4A\	.	(>4a/	.	.
8g 8c/L	.	.	.	.	.
8f 8c 8A/	8A\L	.	8b/L	.	.
8eJ 8A/	8G\J	.	8cc#X/J	.	.
!!LO:LB:g=original
=104	=104	=104	=104	=104	=104
8r	2F#X\	.	4cc#X\	.	<
8e/ 8A/	.	.	.	.	.
8rB	.	.	4dd\	.	[[
8d/ 8A/	.	.	.	.	.
=105	=105	=105	=105	=105	=105
!	!	!	!LO:MO:mod=!LO&colon;TX&colon;a&colon;i&colon;t=rit.	!	!
!	!	!	!LO:TX:b:i:t=rit&colon;	!	!
8rB	4BB-X\	.	8ff\L	.	.
8a/ 8d/ 8B-X/	.	.	8ff\	.	.
8rB	4E\	.	8ee\	.	.
!	!	!	!LO:TX:t=P:problem=8\right	!	!
8g#X/ 8d/ 8Bn/	.	.	8b\J	.	.
=106	=106	=106	=106	=106	=106
*ped	*	*	*	*	*
8rB	2AA\	.	4cc#X\)	.	.
8a/ 8e/ 8c#X/	.	.	.	.	.
!	!	!	!	!	!LO:HP:b=2
8rB	.	.	(>4a/	.	<
*Xped	*	*	*	*	*
8e/ 8c#/	.	.	.	.	.
=107	=107	=107	=107	=107	=107
!	!	!	!LO:MO:mod=!LO&colon;TX&colon;a&colon;i&colon;t=a tempo	!	!
!	!	!	!LO:TX:b:i:t=a tempo	!	!
8r	2F\	.	4dd\	.	.
8d/ 8A/	.	.	.	.	.
!	!	!	!	!	!LO:MO:mod=!null:null
!	!	!	!	!	!LO:HP:a
8rB	.	.	4a/	.	<
8f/ 8d/ 8A/	.	.	.	.	.
=108	=108	=108	=108	=108	=108
8rB	2E\	.	4b-X\	.	.
4g/ 4d/ 4A/	.	.	.	.	.
!	!	!	!LO:TX:t=P:4\right:problem	!	!
.	.	.	[>4bn\)	.	.
8g/ 8d/ 8A/	.	.	.	.	.
!!LO:PB:g=original
=109	=109	=109	=109	=109	=109
8rB	2AA\	.	(>4b\]	.	.
4g/ 4e/ 4A/	.	.	.	.	.
.	.	.	8cc\L	.	.
8g/ 8e/ 8A/	.	.	8cc#X\J	.	.
=110	=110	=110	=110	=110	=110
8rB	2D\	.	4dd\	.	.
4f/ 4d/ 4A/	.	.	.	.	.
.	.	.	[>4ee\)	.	.
8f/ 8d/ 8A/	.	.	.	.	.
=111	=111	=111	=111	=111	=111
!	!	!	!	!	!LO:DY:a:rj
8rB	2C\	.	(>4ee\]	.	f
4f/ 4d/ 4A/	.	.	.	.	.
.	.	.	4ff\	.	.
8f/ 8d/ 8A/	.	.	.	.	.
=112	=112	=112	=112	=112	=112
!	!	!	!	!	!LO:DY:a
8rB	2BB\	.	4aa\	.	sf
8f/ 8d/ 8A/	.	.	.	.	.
8rB	.	.	8gg\L	.	.
8a/ 8f/ 8d/	.	.	8ff\J)	.	.
=113	=113	=113	=113	=113	=113
8rB	2BB\	.	8aa'>^>\L	.	f
4d/ 4B/ 4A/	.	.	8aa'>^>\	.	.
.	.	.	8gg\	.	.
8a/ 8d/ 8B/	.	.	8ff\J	.	.
=114	=114	=114	=114	=114	=114
!	!	!	!LO:MO:mod=!LO&colon;TX&colon;a&colon;i&colon;t=poco rit.	!	!
!	!	!	!LO:TX:a:i:t=poco riten	!	!
8rB	[<2E\	.	2ee\	.	.
4a/ 4d/ 4B^>/	.	.	.	.	.
8g/ 8d/ 8B/	.	.	.	.	.
!!LO:LB:g=original
=115	=115	=115	=115	=115	=115
*	*	*	*	*	*^
!	!	!	!LO:MO:mod=!LO&colon;TX&colon;a&colon;i&colon;t=a tempo	!	!LO:MO:mod=!LO&colon;DY&colon;b=2	!
!	!LO:TX:t=P:problem=brak zakończenia ligatury	!	!LO:TX:b:i:t=a tempo	!	!LO:DY:b=2	!LO:DY:a
8rB	2E\]	.	(>4aa\	.	ppp	pp
!LO:TX:b:i:t=marcato il basso	!	!	!	!	!	!
4g 4c 4A/	.	.	.	.	.	.
.	.	.	4ee\	.	.	.
8g 8c 8A/	.	.	.	.	.	.
*	*	*	*	*	*v	*v
=116	=116	=116	=116	=116	=116
8rB	2D\	.	4gg\	.	.
8e#X 8c 8B-X/	.	.	.	.	.
8rB	.	.	8ff\L	.	.
8f 8d 8A/	.	.	8a\J)	.	.
=117	=117	=117	=117	=117	=117
8rB	2C\	.	8r	.	.
4f 4d 4A/	.	.	(>8a/L	.	<
.	.	.	8b/	.	.
8f 8d 8A/	.	.	8cc/J	.	[[
=118	=118	=118	=118	=118	=118
8rB	2BB\	.	4ee\	.	>
8f 8d 8A/	.	.	.	.	.
8rB	.	.	4dd\)	.	]]
8f 8d 8A/	.	.	.	.	.
=119	=119	=119	=119	=119	=119
*ped	*	*	*	*	*
8rB	2EE\	.	(>4cc\	.	.
8e 8d 8G#X/	.	.	.	.	<
8rB	.	.	4g#X/	.	.
8d 8G# 8E/	.	.	.	.	[[
*Xped	*	*	*	*	*
!!LO:LB:g=original
=120	=120	=120	=120	=120	=120
8rB	2FF\	.	4b\	.	.
8d/ 8G#X/ 8F/	.	.	.	.	.
8rB	.	.	8a/L	.	.
8c/ 8A/ 8D/	.	.	8d/J)	.	.
=121	=121	=121	=121	=121	=121
8rB	2GG\	.	4a/	.	>
8c/ 8D/	.	.	.	.	.
8rB	.	.	(>8g/L	.	.
8B/ 8D/	.	.	8f/J	.	]]
=122	=122	=122	=122	=122	=122
8rB	4C\	.	2e/)	.	.
4c/ 4G/	.	.	.	.	.
.	4BB\	.	.	.	.
8c/ 8G/	.	.	.	.	.
=123	=123	=123	=123	=123	=123
!	!	!	!	!	!LO:DY:a
8rB	4BB-X\	.	(>4g/	.	sf
8d/ 8E/	.	.	.	.	.
8rB	4AA\	.	8f/L	.	.
8c/ 8F/	.	.	8e/J	.	.
=124	=124	=124	=124	=124	=124
8rB	4AA-X\	.	4.d/	.	<
!LO:SIC:o=(<(>/8c 8F/	!	!	!	!	!
(/8c 8F/	.	.	.	.	.
!LO:SIC:o=4B/ 4G/))	!LO:TX:t=P:problem=8\middle	!	!	!	!
4B/ 4G/)	8GG\L	.	.	.	.
.	8FF\J	.	8d/)	.	[
!!LO:LB:g=original
=125	=125	=125	=125	=125	=125
*	*	*	*	*	*^
*ped	*	*	*	*	*	*
!	!	!	!	!	!LO:MO:mod=!LO&colon;TX&colon;a&colon;t=	!
!	!	!	!	!	!LO:DY:t=mfz	!
8r	2EE\	.	N(>4g^>/	.	mf	.
!	!	!	!	!	!	!LO:HP:b=2
4GG/	.	.	.	.	<	<
.	.	.	4G/	.	.	.
*Xped	*	*	*	*	*	*
8GG/	.	.	.	.	.	.
=126	=126	=126	=126	=126	=126	=126
*	*	*	*^	*	*	*
*ped	*	*	*	*	*	*	*
8r	2DD\	.	4A/	4ryy	.	.	.
4GG/	.	.	.	.	.	.	.
.	.	.	4f/	4A\	.	[	.
*Xped	*	*	*	*	*	*	*
8GG/	.	.	.	.	.	.	.
*	*	*	*v	*v	*	*v	*v
=127	=127	=127	=127	=127	=127
*	*^	*	*	*	*
8rAA	2GGG\	4B/ 4A/	.	4f/	.	.
4GG/	.	.	.	.	.	>
.	.	[>8B/ /8GL	.	8e/L	.	.
8GG/	.	8B/] 8F/J	.	8d#X/J	.	.
*	*v	*v	*	*	*	*
=128	=128	=128	=128	=128	=128
8rAA	2CC\	.	4e</ 4c</ 4E</	.	.
4GG/	.	.	.	.	.
.	.	.	4E</	.	]]
8GG/N)	.	.	.	.	.
=129	=129	=129	=129	=129	=129
*ped	*	*	*	*	*
8rAA	2CC\	.	(>4e</	.	.
4EE/	.	.	.	.	.
.	.	.	4E</	.	.
*Xped	*	*	*	*	*
8EE/	.	.	.	.	.
!!LO:LB:g=original
=130	=130	=130	=130	=130	=130
*ped	*	*	*	*	*
!	!	!	!	!	!LO:HP:b=2
8rAA	2BBB\	.	4F#X</	.	<
4EE/	.	.	.	.	.
.	.	.	4d</	.	[[
*Xped	*	*	*	*	*
8EE/	.	.	.	.	.
=131	=131	=131	=131	=131	=131
*	*	*	*^	*	*
*ped	*	*	*	*	*	*
!	!	!	!	!	!	!LO:HP:b=2
8rAA	2EEE\	.	4d</ 4G#X</	4ryy	.	>
4EE\	.	.	.	.	.	.
.	.	.	8c</L	4G#<\ 4E<\	.	.
*Xped	*	*	*	*	*	*
8EE\	.	.	8B</J	.	.	]
*v	*v	*	*	*	*	*
*	*	*v	*v	*	*
=132	=132	=132	=132	=132
4AAA\	.	4c</ 4A</ 4E</)	.	.
!	!	!LO:TX:i:a:t=poco Lento:mod=poco lento	!	!
4FF\	.	(>4d</ 4B</ 4A</	.	.
=133	=133	=133	=133	=133
*^	*	*	*	*
4A/	2EE\	.	2e/ 2B/	.	.
!	!	!	!	!	!LO:DY:rj
(>4G#X/	.	.	.	.	p
=134	=134	=134	=134	=134	=134
*ped	*	*	*	*	*
4A-X/)	2GGG\	.	2f/ 2B/	.	.
4G/	.	.	.	.	.
*Xped	*	*	*	*	*
*v	*v	*	*	*	*
.	.	8qqe/	.	.
=135	=135	=135	=135	=135
!	!	!LO:MO:mod=!LO&colon;TX&colon;a&colon;i&colon;t=rit.	!	!
!	!	!LO:TX:b:i:t=rit&colon;	!	!
*ped	*	*	*	*
2CC/	.	2e/ 2c/ 2G</ 2E</	.	pp
=136	=136	=136	=136	=136
4E:\ 4C:\ 4GG:\ 4CC:\	.	4e:/ 4c:/ 4G<;>:/)	.	.
4r	.	4r	.	.
*Xped	*	*	*	*
==	==	==	==	==
*-	*-	*-	*-	*-
!!!system-decoration: {(g1)}
!!LO:MO:ori
!!!RDF**dynam: < = "cresc:", fontstyle="italic"
!!!RDF**dynam: > = "dim", fontstyle="italic"
!!LO:MO:end
!!!RDF**kern: > = above
!!!RDF**kern: < = below
!!!RDF**kern: N = linked
!!!filter-modern: sic -sq | shed -e "s/LO:DY:(a|b|rj)/LO:dy:$1/L" | autostem -r | tie -s | shed -k -e "s/([^a-gA-Gn#X-])[<>]/$1/g" | shed -k -e "s/:TUP:/:tup:/L" | shed -e "s/TX(.*):t=P:/tx$1:t=P:/LG" | shed -e "s/^(\d+[\/\\]right)/$1yy/I; s/^(\d+[\/\\]left)/$1yy/I" | modori -m
!!!ENC: Andrzej Gręziak
!!!END: 2021-11-06
!!!EED: Jędrzej Mróz
!!!EEV: 2021-11-10
!!!ENC-modern: Katarzyna Serwa
!!!END-modern: 2022-08-30
